;FLAVOR:Marlin
;TIME:5265
;Filament used: 3.37298m
;Layer height: 0.2
;MINX:80.5
;MINY:89.293
;MINZ:0.2
;MAXX:134.601
;MAXY:131.191
;MAXZ:55
;POSTPROCESSED
;Generated with Cura_SteamEngine 4.8.0
M140 S60
M105
M190 S60
M104 S240
M105
M109 S240
M82 ;absolute extrusion mode
; Ender 3 Custom Start G-code
G92 E0 ; Reset Extruder
G28 ; Home all axes
G29 ; Auto Level
G1 Z2.0 F3000 ; Move Z Axis up little to prevent scratching of Heat Bed
G1 X0.1 Y20 Z0.3 F5000.0 ; Move to start position
G1 X0.1 Y200.0 Z0.3 F1500.0 E15 ; Draw the first line
G1 X0.4 Y200.0 Z0.3 F5000.0 ; Move to side a little
G1 X0.4 Y20 Z0.3 F1500.0 E30 ; Draw the second line
G92 E0 ; Reset Extruder
G1 Z2.0 F3000 ; Move Z Axis up little to prevent scratching of Heat Bed
G1 X5 Y20 Z0.3 F5000.0 ; Move over to prevent blob squish
G92 E0
G92 E0
G1 F1800 E-5
;LAYER_COUNT:275
;LAYER:0
M107
G0 F6000 X84.386 Y91.92 Z0.2
;TYPE:SKIRT
G1 F1800 E0
G1 F1200 X85.126 Y91.344 E0.03119
G1 X85.912 Y90.832 E0.06239
G1 X86.739 Y90.39 E0.09358
G1 X87.601 Y90.02 E0.12478
G1 X88.491 Y89.724 E0.15597
G1 X89.403 Y89.506 E0.18716
G1 X90.33 Y89.365 E0.21835
G1 X91.201 Y89.306 E0.24738
G1 X91.522 Y89.297 E0.25806
G1 X91.83 Y89.293 E0.26831
G1 X92.793 Y89.293 E0.30034
G1 X93.651 Y89.304 E0.32888
G1 X94.272 Y89.331 E0.34955
G1 X94.557 Y89.351 E0.35905
G1 X97.18 Y89.501 E0.44644
G1 X99.666 Y89.572 E0.52916
G1 X102.19 Y89.572 E0.61311
G1 X104.715 Y89.501 E0.69712
G1 X107.302 Y89.356 E0.7833
G1 X107.861 Y89.321 E0.80193
G1 X108.201 Y89.306 E0.81325
G1 X108.521 Y89.297 E0.8239
G1 X108.83 Y89.293 E0.83417
G1 X123.052 Y89.294 E1.3072
G1 X123.75 Y89.304 E1.33042
G1 X124.686 Y89.358 E1.3616
G1 X125.614 Y89.49 E1.39278
G1 X126.528 Y89.702 E1.42398
G1 X127.42 Y89.991 E1.45517
G1 X128.285 Y90.354 E1.48637
G1 X129.115 Y90.79 E1.51755
G1 X129.906 Y91.295 E1.54877
G1 X130.65 Y91.866 E1.57996
G1 X131.343 Y92.498 E1.61116
G1 X131.98 Y93.186 E1.64234
G1 X132.555 Y93.927 E1.67354
G1 X133.066 Y94.713 E1.70472
G1 X133.508 Y95.541 E1.73593
G1 X133.877 Y96.403 E1.76712
G1 X134.172 Y97.293 E1.79831
G1 X134.39 Y98.205 E1.82949
G1 X134.53 Y99.133 E1.86071
G1 X134.588 Y99.993 E1.88938
G1 X134.597 Y100.312 E1.89999
G1 X134.601 Y100.623 E1.91034
G1 X134.599 Y112.204 E2.29552
G1 X134.589 Y112.904 E2.31881
G1 X134.536 Y113.84 E2.34999
G1 X134.403 Y114.769 E2.3812
G1 X134.191 Y115.683 E2.41241
G1 X133.902 Y116.575 E2.4436
G1 X133.539 Y117.439 E2.47477
G1 X133.103 Y118.27 E2.50598
G1 X132.598 Y119.06 E2.53716
G1 X132.253 Y119.526 E2.55645
G1 X131.996 Y119.848 E2.57015
G1 X131.627 Y120.293 E2.58938
G1 X126.033 Y126.907 E2.87749
G1 X125.588 Y127.418 E2.90003
G1 X124.943 Y128.098 E2.9312
G1 X124.242 Y128.721 E2.96239
G1 X123.49 Y129.282 E2.9936
G1 X122.693 Y129.777 E3.0248
G1 X121.857 Y130.202 E3.056
G1 X120.988 Y130.555 E3.08719
G1 X120.092 Y130.832 E3.11839
G1 X119.176 Y131.032 E3.14957
G1 X118.246 Y131.153 E3.18076
G1 X117.027 Y131.191 E3.22133
G1 X116.903 Y131.188 E3.22545
G1 X115.967 Y131.125 E3.25665
G1 X115.361 Y131.041 E3.277
G1 X115.013 Y130.983 E3.28874
G1 X114.682 Y130.923 E3.29992
G1 X114.305 Y130.847 E3.31272
G1 X113.625 Y130.702 E3.33584
G1 X112.698 Y130.462 E3.36769
G1 X112.427 Y130.379 E3.37712
G1 X112.169 Y130.297 E3.38612
G1 X111.851 Y130.191 E3.39727
G1 X110.984 Y129.884 E3.42786
G1 X110.16 Y129.552 E3.45741
G1 X109.969 Y129.466 E3.46437
G1 X109.698 Y129.34 E3.47431
G1 X109.367 Y129.18 E3.48654
G1 X109.145 Y129.069 E3.4948
G1 X107.621 Y128.289 E3.55174
G1 X106.586 Y127.742 E3.59068
G1 X104.346 Y126.638 E3.67374
G1 X102.033 Y125.58 E3.75833
G1 X99.758 Y124.614 E3.84054
G1 X97.357 Y123.674 E3.9263
G1 X95.005 Y122.833 E4.00938
G1 X92.667 Y122.068 E4.09119
G1 X89.668 Y121.188 E4.19515
G1 X88.584 Y120.889 E4.23255
G1 X87.691 Y120.601 E4.26376
G1 X86.826 Y120.238 E4.29496
G1 X85.995 Y119.803 E4.32615
G1 X85.205 Y119.298 E4.35734
G1 X84.46 Y118.729 E4.38852
G1 X83.766 Y118.097 E4.41974
G1 X83.129 Y117.409 E4.45092
G1 X82.552 Y116.669 E4.48213
G1 X82.041 Y115.883 E4.51331
G1 X81.599 Y115.056 E4.5445
G1 X81.228 Y114.195 E4.57568
G1 X80.933 Y113.305 E4.60687
G1 X80.714 Y112.393 E4.63807
G1 X80.574 Y111.465 E4.66928
G1 X80.515 Y110.626 E4.69725
G1 X80.505 Y110.304 E4.70797
G1 X80.5 Y109.963 E4.71931
G1 X80.501 Y100.818 E5.02348
G1 X80.51 Y100.153 E5.0456
G1 X80.563 Y99.217 E5.07678
G1 X80.695 Y98.288 E5.10799
G1 X80.906 Y97.374 E5.13919
G1 X81.194 Y96.482 E5.17036
G1 X81.557 Y95.617 E5.20156
G1 X81.992 Y94.786 E5.23276
G1 X82.496 Y93.996 E5.26393
G1 X83.066 Y93.251 E5.29513
G1 X83.698 Y92.557 E5.32635
G1 X84.386 Y91.92 E5.35753
G0 F6000 X84.774 Y92.116
G1 F1200 X85.51 Y91.563 E5.38815
G1 X86.291 Y91.075 E5.41878
G1 X87.111 Y90.657 E5.44939
G1 X87.965 Y90.312 E5.48003
G1 X88.845 Y90.042 E5.51064
G1 X89.745 Y89.85 E5.54125
G1 X90.659 Y89.736 E5.57189
G1 X91.212 Y89.706 E5.59031
G1 X91.533 Y89.697 E5.60099
G1 X91.83 Y89.693 E5.61087
G1 X92.793 Y89.693 E5.64289
G1 X93.645 Y89.704 E5.67123
G1 X94.243 Y89.73 E5.69114
G1 X94.499 Y89.748 E5.69968
G1 X97.148 Y89.899 E5.78793
G1 X99.689 Y89.972 E5.87248
G1 X102.201 Y89.972 E5.95603
G1 X104.748 Y89.901 E6.04077
G1 X107.301 Y89.757 E6.12582
G1 X107.495 Y89.743 E6.13229
G1 X107.884 Y89.72 E6.14525
G1 X108.212 Y89.706 E6.15617
G1 X108.532 Y89.697 E6.16682
G1 X108.83 Y89.693 E6.17673
G1 X123.046 Y89.694 E6.64956
G1 X123.744 Y89.704 E6.67277
G1 X124.663 Y89.757 E6.70339
G1 X125.574 Y89.89 E6.73401
G1 X126.47 Y90.101 E6.76463
G1 X127.344 Y90.389 E6.79524
G1 X128.191 Y90.752 E6.82588
G1 X129.002 Y91.187 E6.85649
G1 X129.772 Y91.691 E6.8871
G1 X130.496 Y92.26 E6.91773
G1 X131.168 Y92.89 E6.94837
G1 X131.783 Y93.575 E6.97898
G1 X132.336 Y94.311 E7.0096
G1 X132.823 Y95.092 E7.04022
G1 X133.24 Y95.913 E7.07084
G1 X133.585 Y96.767 E7.10148
G1 X133.854 Y97.647 E7.13208
G1 X134.046 Y98.548 E7.16272
G1 X134.159 Y99.461 E7.19332
G1 X134.188 Y100.004 E7.21141
G1 X134.197 Y100.323 E7.22202
G1 X134.201 Y100.623 E7.232
G1 X134.199 Y112.198 E7.61699
G1 X134.189 Y112.898 E7.64027
G1 X134.136 Y113.818 E7.67092
G1 X134.003 Y114.729 E7.70154
G1 X133.792 Y115.625 E7.73216
G1 X133.504 Y116.499 E7.76277
G1 X133.141 Y117.345 E7.79339
G1 X132.706 Y118.157 E7.82402
G1 X131.938 Y119.28 E7.86927
G1 X131.688 Y119.593 E7.8826
G1 X131.321 Y120.035 E7.90171
G1 X125.732 Y126.644 E8.18959
G1 X125.287 Y127.155 E8.21212
G1 X124.653 Y127.823 E8.24275
G1 X123.963 Y128.433 E8.27339
G1 X123.223 Y128.98 E8.30399
G1 X122.438 Y129.462 E8.33463
G1 X121.614 Y129.873 E8.36526
G1 X120.758 Y130.212 E8.39588
G1 X119.876 Y130.474 E8.42648
G1 X118.974 Y130.66 E8.45711
G1 X118.06 Y130.766 E8.48772
G1 X117.037 Y130.791 E8.52175
G1 X116.913 Y130.788 E8.52588
G1 X115.994 Y130.726 E8.55651
G1 X115.426 Y130.647 E8.57559
G1 X115.078 Y130.589 E8.58732
G1 X114.76 Y130.531 E8.59807
G1 X114.388 Y130.456 E8.61069
G1 X113.708 Y130.311 E8.63382
G1 X112.815 Y130.079 E8.66451
G1 X112.544 Y129.996 E8.67393
G1 X112.296 Y129.917 E8.68259
G1 X111.978 Y129.811 E8.69374
G1 X111.773 Y129.74 E8.70095
G1 X111.119 Y129.507 E8.72405
G1 X110.324 Y129.187 E8.75255
G1 X109.872 Y128.98 E8.76908
G1 X109.541 Y128.82 E8.78131
G1 X109.327 Y128.713 E8.78927
G1 X107.808 Y127.935 E8.84603
G1 X106.799 Y127.402 E8.88399
G1 X104.482 Y126.26 E8.9699
G1 X102.22 Y125.226 E9.05263
G1 X99.881 Y124.232 E9.13715
G1 X97.512 Y123.305 E9.22177
G1 X95.148 Y122.459 E9.30528
G1 X92.777 Y121.683 E9.38825
G1 X89.76 Y120.798 E9.49283
G1 X88.69 Y120.503 E9.52974
G1 X87.814 Y120.22 E9.56036
G1 X86.966 Y119.862 E9.59098
G1 X86.152 Y119.431 E9.62161
G1 X85.379 Y118.932 E9.65221
G1 X84.651 Y118.367 E9.68286
G1 X83.976 Y117.742 E9.71346
G1 X83.357 Y117.06 E9.74409
G1 X82.8 Y116.327 E9.77471
G1 X82.309 Y115.548 E9.80534
G1 X81.887 Y114.73 E9.83595
G1 X81.538 Y113.878 E9.86658
G1 X81.263 Y112.999 E9.89721
G1 X81.067 Y112.1 E9.92781
G1 X80.948 Y111.187 E9.95843
G1 X80.915 Y110.614 E9.97752
G1 X80.905 Y110.292 E9.98824
G1 X80.9 Y109.963 E9.99918
G1 X80.901 Y100.824 E10.30315
G1 X80.91 Y100.159 E10.32527
G1 X80.962 Y99.239 E10.35592
G1 X81.094 Y98.328 E10.38653
G1 X81.305 Y97.432 E10.41715
G1 X81.592 Y96.557 E10.44778
G1 X81.955 Y95.711 E10.4784
G1 X82.389 Y94.899 E10.50902
G1 X82.892 Y94.128 E10.53964
G1 X83.461 Y93.404 E10.57026
G1 X84.089 Y92.732 E10.60086
G1 X84.774 Y92.116 E10.6315
G0 F6000 X85.162 Y92.317
G1 F1200 X85.894 Y91.787 E10.66155
G1 X86.669 Y91.324 E10.69158
G1 X87.482 Y90.931 E10.72161
G1 X88.327 Y90.611 E10.75167
G1 X89.196 Y90.368 E10.78168
G1 X90.084 Y90.202 E10.81173
G1 X91.223 Y90.106 E10.84974
G1 X91.544 Y90.097 E10.86042
G1 X91.83 Y90.093 E10.86994
G1 X92.793 Y90.093 E10.90197
G1 X93.639 Y90.104 E10.93011
G1 X94.215 Y90.129 E10.94928
G1 X94.523 Y90.151 E10.95955
G1 X97.113 Y90.299 E11.04584
G1 X99.678 Y90.372 E11.13118
G1 X102.212 Y90.372 E11.21547
G1 X104.747 Y90.301 E11.29981
G1 X107.36 Y90.154 E11.38686
G1 X107.908 Y90.12 E11.40512
G1 X108.223 Y90.106 E11.41561
G1 X108.543 Y90.097 E11.42626
G1 X108.83 Y90.093 E11.4358
G1 X123.04 Y90.094 E11.90843
G1 X123.738 Y90.104 E11.93165
G1 X124.64 Y90.157 E11.9617
G1 X125.533 Y90.289 E11.99172
G1 X126.411 Y90.5 E12.02176
G1 X127.267 Y90.788 E12.0518
G1 X128.094 Y91.15 E12.08182
G1 X128.886 Y91.585 E12.11187
G1 X129.637 Y92.087 E12.14192
G1 X130.34 Y92.654 E12.17196
G1 X130.99 Y93.281 E12.202
G1 X131.582 Y93.963 E12.23203
G1 X132.112 Y94.694 E12.26207
G1 X132.574 Y95.47 E12.2921
G1 X132.967 Y96.283 E12.32214
G1 X133.285 Y97.128 E12.35217
G1 X133.528 Y97.998 E12.38221
G1 X133.693 Y98.886 E12.41225
G1 X133.788 Y100.015 E12.44993
G1 X133.797 Y100.334 E12.46055
G1 X133.801 Y100.623 E12.47016
G1 X133.799 Y112.193 E12.85498
G1 X133.789 Y112.893 E12.87827
G1 X133.736 Y113.794 E12.90828
G1 X133.604 Y114.688 E12.93834
G1 X133.393 Y115.566 E12.96838
G1 X133.105 Y116.422 E12.99841
G1 X132.743 Y117.249 E13.02844
G1 X132.309 Y118.041 E13.05848
G1 X131.623 Y119.033 E13.09859
G1 X131.379 Y119.338 E13.11158
G1 X131.016 Y119.777 E13.13053
G1 X125.43 Y126.382 E13.41824
G1 X124.985 Y126.893 E13.44078
G1 X124.362 Y127.547 E13.47082
G1 X123.684 Y128.143 E13.50085
G1 X122.956 Y128.677 E13.53088
G1 X122.184 Y129.145 E13.5609
G1 X121.373 Y129.543 E13.59095
G1 X120.53 Y129.867 E13.62099
G1 X119.662 Y130.115 E13.65101
G1 X118.775 Y130.286 E13.68106
G1 X117.876 Y130.377 E13.71111
G1 X117.046 Y130.391 E13.73872
G1 X116.922 Y130.388 E13.74285
G1 X116.021 Y130.326 E13.77289
G1 X115.492 Y130.252 E13.79065
G1 X115.144 Y130.194 E13.80239
G1 X114.838 Y130.138 E13.81273
G1 X114.472 Y130.065 E13.82514
G1 X113.792 Y129.92 E13.84827
G1 X112.932 Y129.697 E13.87782
G1 X112.661 Y129.614 E13.88725
G1 X112.422 Y129.538 E13.89559
G1 X112.104 Y129.432 E13.90674
G1 X111.253 Y129.13 E13.93677
G1 X110.488 Y128.823 E13.96419
G1 X110.297 Y128.737 E13.97115
G1 X110.046 Y128.619 E13.98038
G1 X109.509 Y128.357 E14.00025
G1 X107.995 Y127.581 E14.05684
G1 X106.984 Y127.047 E14.09487
G1 X104.688 Y125.916 E14.17999
G1 X102.363 Y124.852 E14.26504
G1 X100.034 Y123.863 E14.34919
G1 X97.656 Y122.932 E14.43413
G1 X95.259 Y122.074 E14.51881
G1 X92.888 Y121.298 E14.60179
G1 X89.869 Y120.413 E14.70642
G1 X88.796 Y120.117 E14.74344
G1 X87.937 Y119.839 E14.77347
G1 X87.106 Y119.485 E14.80352
G1 X86.31 Y119.06 E14.83353
G1 X85.554 Y118.565 E14.86358
G1 X84.845 Y118.006 E14.89361
G1 X84.188 Y117.386 E14.92366
G1 X83.589 Y116.711 E14.95367
G1 X83.051 Y115.985 E14.98373
G1 X82.58 Y115.214 E15.01378
G1 X82.179 Y114.405 E15.04381
G1 X81.851 Y113.564 E15.07383
G1 X81.599 Y112.697 E15.10386
G1 X81.425 Y111.811 E15.1339
G1 X81.315 Y110.602 E15.17427
G1 X81.305 Y110.28 E15.18499
G1 X81.3 Y109.963 E15.19553
G1 X81.301 Y100.829 E15.49933
G1 X81.31 Y100.164 E15.52145
G1 X81.362 Y99.262 E15.5515
G1 X81.494 Y98.369 E15.58153
G1 X81.704 Y97.491 E15.61155
G1 X81.991 Y96.634 E15.64161
G1 X82.353 Y95.807 E15.67164
G1 X82.786 Y95.015 E15.70166
G1 X83.288 Y94.264 E15.7317
G1 X83.855 Y93.56 E15.76177
G1 X84.481 Y92.91 E15.79178
G1 X85.162 Y92.317 E15.82182
G1 F1800 E10.82182
;MESH:Heat_tower_190-240_Bridge.stl
G0 F6000 X93.253 Y98.907
G0 X107.923 Y111.623
G0 X109.003 Y111.552
G0 X109.974 Y113.822
G0 X110.507 Y114.904
G0 X111.179 Y115.908
G0 X111.976 Y116.817
G0 X112.884 Y117.614
G0 X113.889 Y118.286
G0 X114.764 Y118.717
G0 X117.05 Y119.567
;TYPE:WALL-INNER
G1 F1800 E15.82182
G1 F1200 X116.068 Y119.372 E15.85512
G1 X114.907 Y118.978 E15.8959
G1 X113.799 Y118.431 E15.93699
G1 X112.78 Y117.751 E15.97774
G1 X111.855 Y116.938 E16.0187
G1 X111.042 Y116.012 E16.05968
G1 X110.362 Y114.994 E16.1004
G1 X109.815 Y113.886 E16.1415
G1 X109.421 Y112.725 E16.18228
G1 X109.182 Y111.525 E16.22297
G1 X109.1 Y110.269 E16.26484
G1 X109.1 Y100.893 E16.57669
G1 X122.802 Y100.893 E17.03242
G1 X123.001 Y100.893 E17.03903
G1 X123.001 Y101.092 E17.04332
G1 X123 Y112.531 E17.42378
G1 X117.05 Y119.567 E17.73026
G0 F6000 X117.205 Y120.003
;TYPE:WALL-OUTER
G1 F1200 X117.192 Y120.003 E17.73069
G1 X115.962 Y119.758 E17.7724
G1 X114.752 Y119.348 E17.81489
G1 X113.599 Y118.779 E17.85766
G1 X112.535 Y118.068 E17.90022
G1 X111.571 Y117.222 E17.94288
G1 X110.724 Y116.257 E17.98559
G1 X110.014 Y115.194 E18.0281
G1 X109.445 Y114.041 E18.07087
G1 X109.035 Y112.831 E18.11336
G1 X108.785 Y111.576 E18.15592
G1 X108.7 Y110.28 E18.19912
G1 X108.7 Y100.493 E18.52464
G1 X123.401 Y100.493 E19.01359
G1 X123.4 Y112.677 E19.41883
G1 X117.205 Y120.003 E19.73794
G0 F6000 X117.036 Y119.524
G0 X116.9 Y119.14
;TYPE:SKIN
G1 F1200 X116.17 Y118.995 E19.76269
G1 X115.056 Y118.617 E19.80182
G1 X113.994 Y118.093 E19.84121
G1 X113.02 Y117.443 E19.88015
G1 X112.132 Y116.661 E19.91951
G1 X111.353 Y115.775 E19.95875
G1 X110.698 Y114.796 E19.99793
G1 X110.176 Y113.737 E20.03719
G1 X109.798 Y112.623 E20.07632
G1 X109.571 Y111.484 E20.11495
G1 X109.49 Y110.244 E20.15628
G1 X109.49 Y101.283 E20.45432
G1 X122.611 Y101.283 E20.89073
G1 X122.61 Y112.388 E21.26008
G1 X116.9 Y119.14 E21.55419
G0 F6000 X116.846 Y119.414
G0 X115.159 Y118.879
G0 X113.588 Y118.157
G0 X113.832 Y117.792
G1 F1200 X111 Y114.96 E21.6874
G0 F6000 X110.635 Y115.203
G0 X109.97 Y113.951
G0 X110.364 Y113.758
G1 F1200 X115.032 Y118.426 E21.90697
G0 F6000 X115.908 Y118.736
G1 F1200 X110.054 Y112.883 E22.1823
G0 F6000 X109.861 Y112.123
G1 F1200 X116.667 Y118.93 E22.50246
G0 F6000 X117.034 Y118.731
G1 F1200 X109.726 Y111.423 E22.8462
G0 F6000 X109.687 Y110.819
G1 F1200 X117.294 Y118.425 E23.20399
G0 F6000 X117.552 Y118.118
G1 F1200 X109.649 Y110.215 E23.57572
G0 F6000 X109.649 Y109.649
G1 F1200 X117.812 Y117.812 E23.95969
G0 F6000 X118.071 Y117.506
G1 F1200 X109.649 Y109.083 E24.35585
G0 F6000 X109.649 Y108.518
G1 F1200 X118.33 Y117.199 E24.76418
G0 F6000 X118.59 Y116.893
G1 F1200 X109.649 Y107.952 E25.18474
G0 F6000 X109.649 Y107.386
G1 F1200 X118.849 Y116.586 E25.61748
G0 F6000 X119.108 Y116.28
G1 F1200 X109.649 Y106.821 E26.0624
G0 F6000 X109.649 Y106.255
G1 F1200 X119.368 Y115.973 E26.51953
G0 F6000 X119.626 Y115.667
G1 F1200 X109.649 Y105.689 E26.98884
G0 F6000 X109.649 Y105.124
G1 F1200 X119.886 Y115.36 E27.47033
G0 F6000 X120.145 Y115.054
G1 F1200 X109.649 Y104.558 E27.96403
G0 F6000 X109.649 Y103.992
G1 F1200 X120.404 Y114.747 E28.46992
G0 F6000 X120.664 Y114.441
G1 F1200 X109.649 Y103.427 E28.98801
G0 F6000 X109.649 Y102.861
G1 F1200 X120.923 Y114.134 E29.51828
G0 F6000 X121.182 Y113.828
G1 F1200 X109.649 Y102.295 E30.06075
G0 F6000 X109.649 Y101.73
G1 F1200 X121.441 Y113.521 E30.61539
G0 F6000 X121.7 Y113.215
G1 F1200 X109.928 Y101.442 E31.16913
G0 F6000 X110.493 Y101.442
G1 F1200 X121.96 Y112.909 E31.7085
G0 F6000 X122.219 Y112.602
G1 F1200 X111.059 Y101.442 E32.23344
G0 F6000 X111.625 Y101.442
G1 F1200 X122.449 Y112.267 E32.74259
G0 F6000 X122.449 Y111.701
G1 F1200 X112.19 Y101.442 E33.22514
G0 F6000 X112.756 Y101.442
G1 F1200 X122.449 Y111.135 E33.68107
G0 F6000 X122.449 Y110.57
G1 F1200 X113.322 Y101.442 E34.1104
G0 F6000 X113.888 Y101.442
G1 F1200 X122.449 Y110.004 E34.5131
G0 F6000 X122.449 Y109.438
G1 F1200 X114.453 Y101.442 E34.88921
G0 F6000 X115.019 Y101.442
G1 F1200 X122.449 Y108.873 E35.23872
G0 F6000 X122.449 Y108.307
G1 F1200 X115.585 Y101.442 E35.5616
G0 F6000 X116.15 Y101.442
G1 F1200 X122.449 Y107.741 E35.85789
G0 F6000 X122.449 Y107.176
G1 F1200 X116.716 Y101.442 E36.12758
